packages/bezier-icons/icons/videocam-off-filled.svg

<svg width="24" height="24" viewBox="0 0 24 24" fill="none" xmlns="http://www.w3.org/2000/svg">
<path fill-rule="evenodd" clip-rule="evenodd" d="M15.9982 8.00007V13.8771L22.2532 20.1321L20.8392 21.5461L2.45418 3.16107L3.86818 1.74707L8.12117 6.00007H13.9982C15.1022 6.00007 15.9982 6.89607 15.9982 8.00007ZM2.00208 8.00017V16.0002C2.00208 17.1042 2.89808 18.0002 4.00208 18.0002H13.9981C14.5201 18.0002 14.9911 17.7952 15.3471 17.4682L3.89008 6.01117C2.83808 6.07017 2.00208 6.93417 2.00208 8.00017ZM21.1877 17.3498C21.5147 17.6128 21.9997 17.3788 21.9997 16.9598V7.03977C21.9997 6.62077 21.5147 6.38777 21.1877 6.64977L17.1877 9.84977C17.0687 9.94477 17.0007 10.0878 17.0007 10.2408V13.7598C17.0007 13.9118 17.0687 14.0548 17.1877 14.1508L21.1877 17.3498Z" fill="#313234"/>
</svg>

<svg xmlns="http://www.w3.org/2000/svg" width="24" height="24" fill="none" viewBox="0 0 24 24"><path fill="#313234" fill-rule="evenodd" d="M15.998 8v5.877l6.255 6.255-1.414 1.414L2.454 3.161l1.414-1.414L8.121 6h5.877a2 2 0 0 1 2 2M2.002 8v8a2 2 0 0 0 2 2h9.996c.522 0 .993-.205 1.35-.532L3.89 6.011a1.994 1.994 0 0 0-1.888 1.99m19.186 9.35a.5.5 0 0 0 .812-.39V7.04a.5.5 0 0 0-.812-.39l-4 3.2a.5.5 0 0 0-.187.39v3.52a.5.5 0 0 0 .187.39z" clip-rule="evenodd"/></svg>
